component-icons/svg/pdf.svg

<?xml version="1.0" encoding="utf-8"?>
<!-- Generator: Adobe Illustrator 24.2.3, SVG Export Plug-In . SVG Version: 6.00 Build 0)  -->
<svg version="1.1" id="Layer_1" xmlns="http://www.w3.org/2000/svg" xmlns:xlink="http://www.w3.org/1999/xlink" x="0px" y="0px"
	 width="24px" height="24px" viewBox="0 0 24 24" enable-background="new 0 0 24 24" xml:space="preserve">
<path d="M2,4.8L4.8,2H18v6h2V0H4L0,4v20h20v-2H2V4.8z M11,20h4l2-2v-6l-2-2h-4V20z M13,12h2v6h-2V12z M4,20h2v-3h2l2-2v-3l-2-2H4V20
	z M6,12h2v3H6V12z M20,12h2l2-2h-6v10h2v-4h1l2-2h-3V12z"/>
</svg>

<svg id="Layer_1" data-name="Layer 1" xmlns="http://www.w3.org/2000/svg" viewBox="0 0 24 24">
  <defs>
    <style>
      .cls-1 {
        fill: gray;
      }
    </style>
  </defs>
  <title>pdf</title>
  <path class="cls-1" d="M2,4.8,4.8,2H18V8h2V0H4L0,4V24H20V22H2ZM11,20h4l2-2V12l-2-2H11Zm2-8h2v6H13ZM4,20H6V17H8l2-2V12L8,10H4Zm2-8H8v3H6Zm14,0h2l2-2H18V20h2V16h1l2-2H20Z"/>
</svg>
